X:0712
T:The Braes of Tulliemet
P:The Braes of Tulliemet
C:Miss Stewart's Coll. 1761
R:Strathspey (8x32)
B:RSCDS 7-12
Z:Anselm Lingnau <anselm@strathspey.org>
M:4/4
L:1/8
K:Am
"Am"A<e e>d e>d e<g|"G"B<G d>G e>G d>G|\
        "Am"A<e e>d e>d e<a|"Em"g>e d>B "Am"A/A/A A2|
"Am"A<e e>d e>d e<g|"G"B<G d>G e>G d>G|\
        "Am"A<e e>d e>d e<a|"Em"g>e d>B "Am"A/A/A A2||
"Am"a>e a<c' a>e a<c'|"G"g>d g<b g>d g<b|\
        "Am"a>e a<c' a>e a<c'|"Em"g>e d>B "Am"A/A/A A2|
"Am"a>e a<c' a>e a<c'|"G"g>d g<b g>d g<b|\
        "Am"a<e e>^f "G"g>a b>a|"Em"g>e d>B "Am"A/A/A A2|]
